X: 9
T: My Love Is In America
Z: fdk42
S: https://thesession.org/tunes/77#setting50942
R: reel
M: 4/4
L: 1/8
K: Dmaj
|: F2> G2 AB=cB | Ad (3ddd Ad (3ddd | F2-FG A~B2> | G2=cAG A/G/F DE |
F2> G2 AB=cB | Ad e/d/c defg | afge fdAF |1 GBAG A/G/F DE :|2 GBAG A/G/F DA ||
|: f2-f~f2> e2=c | Ad (3ddd Ad (3ddd | ~f2> g2 fdAF | GBAG A/G/F DA |
f2-f ~f2> e2=c | Ad e/d/c defg | afge fdAF |1 GBAG A/G/F DA :|2 GBAG A/G/F D4 ||

